build/img/heart.svg

<svg width="30" height="30" viewBox="0 0 30 30" fill="none" xmlns="http://www.w3.org/2000/svg">
<circle opacity="0.1" cx="15" cy="15" r="15" fill="#9564AA"/>
<path fill-rule="evenodd" clip-rule="evenodd" d="M18.0355 8.33338C17.0704 8.33337 16.4483 8.44835 15.7351 8.79742C15.4711 8.92666 15.2234 9.0823 14.9933 9.26388C14.7721 9.09248 14.5343 8.94399 14.2812 8.8188C13.5542 8.45922 12.9002 8.33337 11.9697 8.33337C9.47764 8.33337 7.66669 10.3982 7.66669 13.08C7.66669 15.1052 8.79591 17.0616 10.8992 18.9533C12.0033 19.9463 13.4129 20.9289 14.4224 21.4517L15 21.7508L15.5776 21.4517C16.5871 20.9289 17.9968 19.9463 19.1008 18.9533C21.2041 17.0616 22.3334 15.1052 22.3334 13.08C22.3334 10.4266 20.5053 8.34361 18.0355 8.33338ZM21 13.08C21 14.6666 20.0575 16.2996 18.2092 17.9619C17.2015 18.8683 15.906 19.774 15 20.2492C14.094 19.774 12.7986 18.8683 11.7909 17.9619C9.94257 16.2996 9.00002 14.6666 9.00002 13.08C9.00002 11.0985 10.2558 9.66671 11.9697 9.66671C12.7095 9.66671 13.1654 9.75443 13.6901 10.0139C14 10.1672 14.2739 10.3696 14.511 10.6226L15.0016 11.1458L15.4877 10.6184C15.7301 10.3553 16.008 10.1483 16.3213 9.99499C16.8306 9.7457 17.258 9.66671 18.0327 9.66671C19.7255 9.67373 21 11.126 21 13.08Z" fill="#9564AA"/>
</svg>

<svg width="30" height="30" fill="none" xmlns="http://www.w3.org/2000/svg"><circle opacity=".1" cx="15" cy="15" r="15" fill="#9564AA"/><path fill-rule="evenodd" clip-rule="evenodd" d="M18.035 8.333c-.965 0-1.587.115-2.3.464-.264.13-.512.285-.742.467a4.201 4.201 0 0 0-.712-.445c-.727-.36-1.38-.486-2.311-.486-2.492 0-4.303 2.065-4.303 4.747 0 2.025 1.129 3.982 3.232 5.873 1.104.993 2.514 1.976 3.523 2.499l.578.299.578-.3c1.01-.522 2.419-1.505 3.523-2.498 2.103-1.891 3.232-3.848 3.232-5.873 0-2.653-1.828-4.736-4.297-4.747ZM21 13.08c0 1.587-.942 3.22-2.79 4.882-1.009.906-2.304 1.812-3.21 2.287-.906-.475-2.201-1.38-3.21-2.287C9.944 16.3 9 14.667 9 13.08c0-1.982 1.256-3.413 2.97-3.413.74 0 1.195.087 1.72.347.31.153.584.356.821.609l.49.523.487-.528c.242-.263.52-.47.833-.623.51-.25.937-.328 1.712-.328C19.725 9.674 21 11.126 21 13.08Z" fill="#9564AA"/></svg>
